X:1
%
T:Goodman's Quadrilles Figure 2
T:Drunken Sailor [1]
M:2/4
L:1/8
R:Quadrille
S:James Goodman (1828?1896) music manuscript collection,
S:vol. 3, p. 173. Mid-19th century, County Cork
Z:AK/Fiddler’s Companion
K:D
AA/B/ AA/B/|Addc|BB/c/ BB/c/|Beef|
AA/B/ AA/B/|Addc|Be AB/c/|dfd:|
|:ff/f/ fe|dB B2|BB/c/ BB/c/|BeeA|
ff/f/ fe|dB B2|Be AB/c/|dfd:|]

